X:1
T:Vergognando talhor
T:Vergognando talhor
T:Girolamo Scotto
T:Source : Madrigali a tre voci---Venetia---G.Scotto---1541. Editor : André Vierendeels (16/06/16)
T:Notes : Original clefs : C2, C3, F3 Editorial accidentals above the staff Original note values have been halved Square bracket indicates ligature Text by Francesco Petrarca (Canzione) "Quinti toni" 
T:©
T:©
T:©
T:©
T:©
T:©
C:Girolamo Scotto
Z:©
%%score [ 1 2 3 ]
L:1/8
Q:1/4=85
M:2/2
K:F
V:1 treble nm="Alto" snm="A"
V:2 treble-8 nm="Tenor" snm="T"
V:3 bass nm="Bass" snm="B"
V:1
 F4 E2 E2 | F2 F2 D2 G2 | G2 G2 E4 | F3 E D2 F2- | FE/D/ E2 F4- | F4 z2 F2 | E2 A2 G2 E2- | %7
w: Ver- go- gnan-|do tal- hor, ch'an-|chor si tac-|ci- * * *|* * * * a,|_ don-|na, per me vo-|
 E2 D4 G2 | A4 B4- | B2 A4 G2 | A8- | A4 G4 | D2 G4 F2 | G2 B2 B2 B2 | A2 B2 G3 G | A2 G3 F F2- | %16
w: * stra bel-|lez- za'in|_ ri- *||||ma, ri- cor- ro'al|tem- po, ch'i vi|vi- di _ pri-|
 F2 E2 F2 C2 | C2 C2 D2 E2 | F3 E D2 F2- | F E/D/ E2 F4 | z2 C2 C2 C2 | D2 C2 G4 | A3 G F2 E2 | %23
w: * * ma, tal,|che null' al- tra|fia _ mai, che|_ mi _ pia- cia|tal, che null'|al- tra fia|mai _ _ che|
 D2 F4 E2 | F8 || z8 | z8 | z8 | G4 G2 G2 | E3 D EF G2- | GF/E/ F2 G4 | D8 | z4 z2 D2 | %33
w: mi piac- ci-|a.||||Ma tro- vo|pe- * * * *||so,|non|
 D2 D2 F3 E | D2 G3 F F2- | F2 E2 F4- | F4 z2 E2 | F2 F2 E2 G2 | G2 D2 E2 F2 | D3 E F2 G2 | %40
w: de la mie _|_ brac- * ci-|* * a,|_ ne|o- pra da po-|lir con la mia|li- * * *|
 A2 B3 A A2- | A2 G2 A4 | F4 F2 F2- | F2 E2 F2 C2 | C2 C2 F4- | F2 E2 D4 | C8 | z2 F4 E2 | %48
w: |* * ma:|pe- ro' lo'|_ nge- gno che|sua for- za'es-|* ti- *|ma,|ne l'o-|
 F2 D2 C2 C2 | D2 E2 F4 | E6 F2 | F2 F2 F4 | E3 D EF G2 | C2 F4 E2 | F8 |] %55
w: va- tion tot- to'|s'ag- ghiac- ci-|a, tut-|to s'ag- ghiac-|ci- * * * *||a.|
V:2
 c4 c2 c2 | A2 A2 B3 A | G2 c2 c2 c2 | A4 B3 A | G4 F2 B2 | A2 d2 c2 A2 | c3 d e2 c2- | c2 f4 e2 | %8
w: Ver- go- gnan-|do tal- hor, ch'an-|chor si tac- ci-|||a, don- na, per|me vo- stra bel-|* lez- za'in|
 f3 e d4- | d2 c2 B4 | A2 f2 f2 f2 | e2 f2 e3 e | f2 B2 c2 A2 | B2 d2 d2 d2 | f2 d2 _edcB | %15
w: ri- * *||ma, ri- cor- ro'al|tem- po, ch'i vi|vi- di pri- *|ma, ri- cor- ro'al|tem- po, ch'i _ _ _|
 A2 c2 A2 B2 | G4 F2 A2 | A2 A2 B2 c2 | d3 c B2 A2 | G4 F2 F2 | G2 G2 A2 A2 | B2 A2 G2 c2- | %22
w: vi vi- di pri-|* ma, tal,|che null' al- tra|fia _ mai, che|mi pia- ci-|a, tal, che null'|al- tra fia mai|
 c2 A4 A2 | B3 A G4 | F8 || z4 c4 | c2 c2 A3 G | AB c3 B/A/ B2 | c2 G2 G2 G2 | c6 G2 | A4 G2 B2- | %31
w: _ che mi|piac- * ci-|a.|Ma|tro- vo pe- *||so, non da le|mie brac-|ci- * *|
 BABc de f2- | f2 e2 f4- | f4 z4 | z2 B2 c2 d2- | d2 cB A2 c2- | cB/A/ B2 cBAG | FGAB cd _e2 | %38
w: |* * a,|_|non de la|_ mie _ _ brac-||* * * * * * ci-|
 d2 B2 c2 A2 | B2 B2 A2 c2 | c2 d2 c4 | B4 A4 | d4 d2 d2 | c3 B A4 | A2 G2 A2 B2 | %45
w: a, ne o- pra|da po- lir con|la mia li-|* ma:|pe- ro' lo'|nge- * gno|che sua for- za'es-|
"^-natural" A2 c4 B2 | c2 A2 G4 | A8 | z2 B4 A2 | B2 G2 FGAB | c2 G2 c2 d2- | dc c4 B2 | %52
w: ti- * *|ma, es- ti-|ma,|ne l'o-|pe- ra- tion _ _ _|_ _ tut- to|_ s'ag- ghiac ci-|
 c3 B A2 G2 | A2 B2 G4 | F8 |] %55
w: ||a.|
V:3
 F,4 C,2 C,2 | D,4 G,4 | C,4 z2 C,2 | D,2 D,2 B,,4 | C,4 z2 D,2 | D,2 D,2 F,3 G, | A,2 F,2 C3 B, | %7
w: Ver- go- gnan-|do tal-|hor, ch'an-|chor si tac-|cia, don-|na, per me vo-|stra bel- lez- za'in|
 A,2 B,2 G,4 | F,2 D,2 G,4 | D,2 F,2 G,4 | D,2 D2 D2 D2 | A,2 A,2 C3 C | B,2 G,2 A,4 | G,6 G,2 | %14
w: ri- * *|ma, bel- lez-|za'in ri- *|ma, ti- cor- ro'al|tem- po, ch'i vi|vi- di pri-|ma, ri-|
 F,2 G,2 C,3 C, | F,2 C,2 D,2 B,,2 | C,4 F,4- | F,4 z4 | z8 | z2 C,2 D,2 D,2 | E,2 E,2 F,3 E, | %21
w: cor- ro'al tem- po,|ch'in vi vi- di|pri- ma,|_||tal, che null'|al- tra fia _|
 D,2 F,3 E,/D,/ E,2 | F,3 E, D,2 C,2 | B,,4 C,4 | F,8 || C,4 C,2 C,2 | F,4 F,4- | F,2 _E,2 D,4 | %28
w: _ mai _ _ _|_ _ che mi|pac- ci-|a|Ma tro- vo|pe- *||
 C,8- | C,8 | z4 z2 G,2 | G,2 G,2 B,3 A, | G,4 F,2 B,2 | B,2 B,2 A,2 B,2- | B,2 G,2 A,2 B,2 | %35
w: so,|_|non|de le mie brac-|ci- a, non|de le mie brac-|* ci- * *|
 G,4 F,3 E, | D,4 C,4 | z2 D,2 C,2 C,2 | G,2 G,2 C,2 D,2 | G,4 F,2 E,2 | F,2 B,,2 F,4 | G,4 D,4 | %42
w: |* a,|ne o- pra|da po- lir con|la mia li-||* ma:|
 B,4 B,2 B,2 | A,3 G, F,4 | F,2 E,2 F,2 D,2 | D,2 C,2 G,4 | C,2 F,4 E,2 | F,2 F,2 D,2 C,2 | %48
w: pe- ro' lo'|ng- * gno|che sua for- za'es-|ti- * *|ma, ne l'o-|pe- ra- tion tut-|
 B,,4 F,4 | B,,2 C,2 D,4 | C,6 B,,2 | F,3 E, D,4 | C,4 z2 C,2 | C,2 B,,2 C,4 | F,8 |] %55
w: to s'ag-|ghiac- ci- *|a, tut-|to s'ag- ghiac|cia, tut-|to s'ag- ghiac-|cia.|

